src/assets/map-icons/briefcase.svg

<svg xmlns="http://www.w3.org/2000/svg" width="16" height="16" fill="currentColor" class="bi bi-briefcase" viewBox="0 0 16 16">
  <path d="M6.5 1A1.5 1.5 0 0 0 5 2.5V3H1.5A1.5 1.5 0 0 0 0 4.5v8A1.5 1.5 0 0 0 1.5 14h13a1.5 1.5 0 0 0 1.5-1.5v-8A1.5 1.5 0 0 0 14.5 3H11v-.5A1.5 1.5 0 0 0 9.5 1h-3zm0 1h3a.5.5 0 0 1 .5.5V3H6v-.5a.5.5 0 0 1 .5-.5zm1.886 6.914L15 7.151V12.5a.5.5 0 0 1-.5.5h-13a.5.5 0 0 1-.5-.5V7.15l6.614 1.764a1.5 1.5 0 0 0 .772 0zM1.5 4h13a.5.5 0 0 1 .5.5v1.616L8.129 7.948a.5.5 0 0 1-.258 0L1 6.116V4.5a.5.5 0 0 1 .5-.5z"/>
</svg>

<?xml version="1.0" encoding="UTF-8" standalone="no"?>
<!-- Created with Inkscape (http://www.inkscape.org/) -->

<svg
   width="22"
   height="22"
   viewBox="0 0 5.8208332 5.8208335"
   version="1.1"
   id="svg5"
   inkscape:version="1.1.2 (b8e25be833, 2022-02-05)"
   sodipodi:docname="briefcase.svg"
   xmlns:inkscape="http://www.inkscape.org/namespaces/inkscape"
   xmlns:sodipodi="http://sodipodi.sourceforge.net/DTD/sodipodi-0.dtd"
   xmlns="http://www.w3.org/2000/svg"
   xmlns:svg="http://www.w3.org/2000/svg">
  <sodipodi:namedview
     id="namedview7"
     pagecolor="#ffffff"
     bordercolor="#999999"
     borderopacity="1"
     inkscape:pageshadow="0"
     inkscape:pageopacity="0"
     inkscape:pagecheckerboard="0"
     inkscape:document-units="mm"
     showgrid="false"
     units="px"
     inkscape:zoom="11.730752"
     inkscape:cx="-3.6229562"
     inkscape:cy="12.190182"
     inkscape:window-width="1920"
     inkscape:window-height="1009"
     inkscape:window-x="-8"
     inkscape:window-y="-8"
     inkscape:window-maximized="1"
     inkscape:current-layer="svg5" />
  <defs
     id="defs2" />
  <circle
     style="opacity:1;fill:#ffffff;fill-opacity:1;stroke-width:1.43261"
     id="path1138"
     cx="2.9018252"
     cy="2.9055679"
     r="2.9069357" />
  <g
     style="fill:currentColor"
     id="g2206"
     transform="matrix(0.26458333,0,0,0.26458333,0.86055054,0.90262382)">
    <path
       d="M 6.5,1 A 1.5,1.5 0 0 0 5,2.5 V 3 H 1.5 A 1.5,1.5 0 0 0 0,4.5 v 8 A 1.5,1.5 0 0 0 1.5,14 h 13 A 1.5,1.5 0 0 0 16,12.5 v -8 A 1.5,1.5 0 0 0 14.5,3 H 11 V 2.5 A 1.5,1.5 0 0 0 9.5,1 Z m 0,1 h 3 A 0.5,0.5 0 0 1 10,2.5 V 3 H 6 V 2.5 A 0.5,0.5 0 0 1 6.5,2 Z M 8.386,8.914 15,7.151 V 12.5 A 0.5,0.5 0 0 1 14.5,13 H 1.5 A 0.5,0.5 0 0 1 1,12.5 V 7.15 l 6.614,1.764 a 1.5,1.5 0 0 0 0.772,0 z M 1.5,4 h 13 A 0.5,0.5 0 0 1 15,4.5 V 6.116 L 8.129,7.948 a 0.5,0.5 0 0 1 -0.258,0 L 1,6.116 V 4.5 A 0.5,0.5 0 0 1 1.5,4 Z"
       id="path2197" />
  </g>
</svg>
